X: 40707
T: Toss Pot, The
R: hornpipe
M: 4/4
K: Dmajor
|:.D2AF EFA,2|EGAG FGA,D|FAdF GBec|Af2d (3.c.B.A (3.G.F.E|
DFAF EFA,2|EGAG FGA,D|FAdF GBec|1 Addc dAFE:|2 Azdc d2cd||
eABA [A3E3]e|fdBA FAdg|ggfg edcd|(3efe(3dcB AA(3cd^d|
eABA EAce|fdBA D/F/Adg|ggga fdcd|e/f/edc dfgf|
eABA [A3E3]e|fdBA FAdg|ggfg edcd|(3efe(3Ace a2(3Ace|
aecA EA(3gfe|(3.f.e.d(3.c.B.A (3.D.F.A df|geag fdcd|e/f/edc d4||

